X: 114
T: Mr. Beveridge's Maggot
M:3/2s
L:1/8
Q:160
S:Playford
O:Manuscript
A:English
K:Dm
g4 ^f2 =e/2f/2 g4| d2 cB AB c2 B2 G2| g4 a2 g/2a/2 b4|f2 ed cd e2 d2 B2| g4 ^f2 =e/2f/2 g4| d2 cB AB c2 B2 G2| g4 a2 g/2a/2 b4|f2 ed cd e2 d2 B2 :|
|: d2 f4 f2 f4| c2 e4 e2 e4| B2 d4 d2 d2 cB|AB c2 B2 AG ^F2 D2| d2 a4 a2 a2 d2| b2 a2 g2 ^f2 g4| de f2 Bc d2 AB c2| B2 G2 G2 ^F2 G4:|

